X: 16
T: Frost Is All Over, The
Z: JACKB
S: https://thesession.org/tunes/448#setting45494
R: jig
M: 6/8
L: 1/8
K: Dmaj
|:def edB|AFD E2D|DFA AFA|Bee edB|
def edc|AFD E2D|DFA AFA|1 Bdd d2A:|2 Bdd d2e||
f3 afd|g3 bag|f3 afd|gfg efg|
f3 afd|g3 bag|f3 ede|fdc d2e|
f3 afd|g3 bag|f3 afd|gfg e2d|
def edB|AFD E2D|DFA AFA|Bdd d2A||

